X: 1
T: Lekatt Mats g\aangl\aat
O: trad.
S: printed copy of unknown origin.
S: https://www.youtube.com/watch?v=lcZKKQRzz6c
R: march
Z: 2017 John Chambers <jc:trillian.mit.edu>
M: 2/4
L: 1/16
K: G
%%slurgraces 1
%%graceslurs 1
D2 |\
[G3G,3]A (~BA)Bc | {c}d4 ~d2(^cd) |\
e3f {f}Tg2fe | d4- ~d2(Bd |\
ga)gf (e~f)ed | {AB}c2Tc2 {A}B2(d~c) |
[M:3/4] (AB)AF {F}[G6G,6] :: [M:2/4] (c2 |\
B3)A (GF)GB |\
{B}e4 d3c | (Bc)BA {D}G2{DE}F2 |\
{F}A6 (D2 | [G3G,3])A (~BA)Bc |
~d2(df) {fg}a3(f | ~ga)gf e2{A}c2 |\
{c}[d6D6] (Bd | ga)gf (e~f)ed |\
{AB}c2Tc2 {A}B2(d~c) | [M:3/4] (AB)AF {F}[G6G,6] :|
